packages/natds-icons/dist/svg/filled-alert-check.svg

<svg width="24" height="24" viewBox="0 0 24 24"  xmlns="http://www.w3.org/2000/svg">
<path d="M20.399 3.49091C18.2172 1.2 15.1627 0 11.8899 0C5.34448 0 -0.000976562 5.45455 -0.000976562 12C-0.000976562 18.6545 5.45357 24 11.999 24H12.1081C18.7627 24 24.1081 18.5455 23.999 11.8909C23.999 8.72727 22.6899 5.67273 20.399 3.49091ZM18.9808 7.09091L11.8899 17.2364C11.7808 17.3455 11.6718 17.4545 11.5627 17.5636C11.2354 17.7818 10.9081 17.8909 10.5808 17.8909C10.1445 17.8909 9.81721 17.6727 9.48993 17.4545L5.1263 12.8727C4.90811 12.6545 4.90811 12.3273 5.1263 12.1091C5.34448 11.8909 5.67175 11.8909 5.88993 12.1091L10.2536 16.6909C10.4718 16.8 10.6899 16.8 10.9081 16.6909L18.1081 6.54545C18.3263 6.32727 18.6536 6.32727 18.8717 6.43636C19.0899 6.54545 19.0899 6.87273 18.9808 7.09091Z" />
</svg>

<svg xmlns="http://www.w3.org/2000/svg" viewBox="0 0 24 24"><g clip-path="url(#clip0_855_12671)"><path d="M20.399 3.49C18.217 1.2 15.163 0 11.889 0 5.345 0 0 5.455 0 12c0 6.654 5.455 12 12 12h.11c6.654 0 12-5.454 11.89-12.11 0-3.163-1.31-6.217-3.6-8.4zm-1.418 3.6L11.89 17.237l-.327.328c-.328.218-.655.327-.982.327-.436 0-.764-.218-1.091-.436l-4.364-4.582a.527.527 0 0 1 0-.764.527.527 0 0 1 .764 0l4.364 4.582c.218.109.436.109.654 0l7.2-10.146c.218-.218.546-.218.764-.109.218.11.218.437.109.655z"/></g><defs><clipPath id="clip0_855_12671"><path d="M0 0h24v24H0z"/></clipPath></defs></svg>
